X: 28657
T: Musical Priest, The
R: reel
M: 4/4
K: Aminor
AG|:EA ~A2 A2 Ac|BAGe dBAG|EA ~A2 AGAc|1 BAGB A2 AG:|2 BAGB A2 AB||
|:c2 cB cedc|BGdG eGdB|cBAB cdea|gedB A2 AB:|
|:cA ~A2 agea|gedB cA ~A2|cA ~A2 agea|1 gedB A2 AB:|2 gedB A4||

